X:3648
L:1/8
M:4/4
K:D
|:{ABc} d2 A2 de f(ug | f<a) gf [eA]3 (uA | d3) (ve Tf3) (uf | g2 fg){vf} a3 z | va>gf<a g>fe<g | 
 Tf>ed>f A3 (uA | d>)fe>g f<ag<f |{f} [eA]4 d4 :: .u[AA]2 .u[cA]2 .u[AA]2 .u[cA]2 | 
 uA2 uA>v[cG]{gf} ve2 uf2 | d2{g} u[fd]2 ud2{g} u[fd]2 | ud2 udve Tvf2 ua2 | 
 ud2 ud>v[fd] Tv[gB]2 u[bB]2 | ud2 ud>ve Tvf2 ua2 | ud2 ud>v[fc]{a} Tv[gB]2 u[bB]2 | 
 ud2 ud>ve Tvf2 ua2 | a>gf<a g>fe<g | Tf>ed<f A3 (A | d>)(.f.e>)g f<ag<f |1{gf} [eA]4 d4 :|2 
{gf} .e2 z2 [dFA,]2 z2 |]

